images_elementary_svg/cmd/32/beziereliminatepoints.svg

<svg height="32" width="32" xmlns="http://www.w3.org/2000/svg" xmlns:xlink="http://www.w3.org/1999/xlink"><linearGradient id="a" gradientTransform="matrix(1.29412 0 0 1.00005 1.706 1.98)" gradientUnits="userSpaceOnUse" x1="-16" x2="-11.806" xlink:href="#m" y1="423.455" y2="423.455"/><linearGradient id="b" gradientTransform="matrix(1.29412 0 0 1 1.706 2)" gradientUnits="userSpaceOnUse" x1="-16" x2="-11.467" xlink:href="#o" y1="423.586" y2="423.586"/><linearGradient id="c" gradientTransform="matrix(1.29412 0 0 1 7.902 -411.622)" gradientUnits="userSpaceOnUse" x1="-5.913" x2="-1.277" xlink:href="#o" y1="423.373" y2="423.373"/><linearGradient id="d" gradientTransform="matrix(.97222 0 0 .9722 -21.625 34.187)" gradientUnits="userSpaceOnUse" x1="12.198" x2="15.699" y1="401.096" y2="404.598"><stop offset="0" stop-color="#d3d7cf"/><stop offset="1" stop-color="#fafbfa"/></linearGradient><linearGradient id="e" gradientTransform="matrix(.875 0 0 .87507 -20.313 73.283)" gradientUnits="userSpaceOnUse" x1="12.816" x2="12.816" xlink:href="#k" y1="400.389" y2="406.511"/><linearGradient id="f" gradientTransform="matrix(1.96316 0 0 1.00005 32.088 -395.874)" gradientUnits="userSpaceOnUse" x1="-16" x2="-5.521" xlink:href="#m" y1="423.455" y2="423.353"/><linearGradient id="g" gradientTransform="matrix(1.96316 0 0 1 11.76 -395.863)" gradientUnits="userSpaceOnUse" x1="-5.913" x2="4.452" xlink:href="#o" y1="423.373" y2="423.363"/><linearGradient id="h" gradientUnits="userSpaceOnUse" x1="9.151" x2="9.151" y1="8.541" y2="1.818"><stop offset="0" stop-color="#fcaf3e"/><stop offset="1" stop-color="#fcaf3e" stop-opacity="0"/></linearGradient><linearGradient id="i" gradientUnits="userSpaceOnUse" x1="12.336" x2="12.336" y1="6.005" y2="1.279"><stop offset="0" stop-color="#ce5c00"/><stop offset="1" stop-color="#ce5c00" stop-opacity="0"/></linearGradient><linearGradient id="j" gradientUnits="userSpaceOnUse" x1="10.85" x2="10.85" xlink:href="#k" y1="6.949" y2="3.167"/><linearGradient id="k"><stop offset="0" stop-color="#fff"/><stop offset="1" stop-color="#fff" stop-opacity="0"/></linearGradient><linearGradient id="l" gradientTransform="matrix(1.29412 0 0 1.00005 21.303 -411.633)" gradientUnits="userSpaceOnUse" x1="-16" x2="-11.371" xlink:href="#m" y1="423.455" y2="423.362"/><linearGradient id="m"><stop offset="0" stop-color="#555753" stop-opacity="0"/><stop offset=".2" stop-color="#555753"/><stop offset=".8" stop-color="#555753"/><stop offset="1" stop-color="#555753" stop-opacity="0"/></linearGradient><linearGradient id="n" gradientTransform="matrix(1.29412 0 0 1 21.303 -410.113)" gradientUnits="userSpaceOnUse" x1="-16" x2="-11.467" xlink:href="#o" y1="423.586" y2="423.586"/><linearGradient id="o"><stop offset="0" stop-color="#babdb6" stop-opacity="0"/><stop offset=".2" stop-color="#babdb6"/><stop offset=".844" stop-color="#babdb6"/><stop offset="1" stop-color="#babdb6" stop-opacity="0"/></linearGradient><g opacity=".36"><path d="m-19.153 424.137h9v3h-9z" fill="url(#a)" transform="matrix(-1.33333 0 0 -1.33333 5.46 574.514)"/><path d="m-19.153 424.887h9v1.5h-9z" fill="url(#b)" transform="matrix(-1.33333 0 0 -1.33333 5.46 574.514)"/></g><path d="m13.75 12.5 8.9.01-.053 1.377-8.847.113z" fill="url(#n)" transform="matrix(1.33333 0 0 1.33333 .667 -10.667)"/><g opacity=".7" stroke-linecap="round" stroke-width=".875"><path d="m-11.386 422.57h6.113l.015 6.11h-6.112z" fill="url(#d)" stroke="#888a85" stroke-linejoin="round" transform="matrix(1.14285 0 0 1.14285 32.51 -479.435)"/><path d="m-10.517 423.444 4.393.01-.02 4.37-4.346-.034z" fill="none" stroke="url(#e)" transform="matrix(1.14285 0 0 1.14285 32.51 -479.435)"/></g><g opacity=".35"><path d="m.25 10.25h6.75v3h-6.75z" fill="url(#l)" transform="matrix(1.33333 0 0 1.33333 .667 -8.667)"/><path d="m.35 10.99 8.9.01-.054 1.378-8.847.113z" fill="url(#c)" transform="matrix(1.33333 0 0 1.33333 .667 -8.667)"/></g><g opacity=".7" stroke-linecap="round" stroke-width=".875"><path d="m-11.386 422.57h6.113l.015 6.11h-6.112z" fill="url(#d)" stroke="#888a85" stroke-linejoin="round" transform="matrix(1.14285 0 0 1.14285 18.51 -479.435)"/><path d="m-10.517 423.444 4.393.01-.02 4.37-4.346-.034z" fill="none" stroke="url(#e)" transform="matrix(1.14285 0 0 1.14285 18.51 -479.435)"/></g><path d="m.15 26.01 21.85-.01v3l-21.85.01z" fill="url(#f)" transform="matrix(1.33333 0 0 1.33333 .667 -11.667)"/><path d="m.3 26.75h21.7v1.5h-21.7z" fill="url(#g)" transform="matrix(1.33333 0 0 1.33333 .667 -11.667)"/><g stroke-linecap="round" stroke-width=".875"><path d="m-11.386 422.57h6.113l.015 6.11h-6.112z" fill="url(#d)" stroke="#888a85" stroke-linejoin="round" transform="matrix(1.14285 0 0 1.14285 25.51 -461.435)"/><path d="m-10.517 423.444 4.393.01-.02 4.37-4.346-.034z" fill="none" stroke="url(#e)" transform="matrix(1.14285 0 0 1.14285 25.51 -461.435)"/></g><g stroke-miterlimit="10" stroke-width="1.79"><path d="m3.898.394v5.663h-3.398l7.643 9.443 7.643-9.443h-3.386v-5.663z" fill="url(#h)" fill-rule="evenodd" stroke="url(#i)" stroke-linecap="round" stroke-linejoin="round" transform="matrix(.58878 0 0 .5299 11.206 11.79)"/><path d="m5.607 2.28v5.677h-1.333l3.86 4.725 3.79-4.725h-1.224v-5.677z" fill="none" opacity=".681" stroke="url(#j)" transform="matrix(.58878 0 0 .5299 11.206 11.79)"/></g></svg>

<svg xmlns="http://www.w3.org/2000/svg" xmlns:xlink="http://www.w3.org/1999/xlink" width="32" height="32"><defs><linearGradient id="a"><stop offset="0" stop-color="#c6262e"/><stop offset="1" stop-color="#b5232a"/></linearGradient><linearGradient id="b" gradientTransform="matrix(0 -.59172 -.63517 0 9.814 30.722)" gradientUnits="userSpaceOnUse" x1="38.941" x2="20.576" y1="15.991" y2="15.991"><stop offset="0" stop-color="#fff"/><stop offset=".125" stop-color="#fff" stop-opacity=".235"/><stop offset=".939" stop-color="#fff" stop-opacity=".157"/><stop offset="1" stop-color="#fff" stop-opacity=".392"/></linearGradient><linearGradient xlink:href="#c" id="h" gradientUnits="userSpaceOnUse" gradientTransform="matrix(1.29412 0 0 1.00005 1.706 1.98)" x1="-16" y1="423.455" x2="-11.806" y2="423.455"/><linearGradient xlink:href="#d" id="i" gradientUnits="userSpaceOnUse" gradientTransform="matrix(1.29412 0 0 1 1.706 2)" x1="-16" y1="423.586" x2="-11.467" y2="423.586"/><linearGradient xlink:href="#d" id="n" gradientUnits="userSpaceOnUse" gradientTransform="matrix(1.29412 0 0 1 7.902 -411.622)" x1="-5.913" y1="423.373" x2="-1.277" y2="423.373"/><linearGradient xlink:href="#e" id="o" gradientUnits="userSpaceOnUse" gradientTransform="matrix(.97222 0 0 .9722 -21.625 34.187)" x1="12.198" y1="401.096" x2="15.699" y2="404.598"/><linearGradient xlink:href="#f" id="p" gradientUnits="userSpaceOnUse" gradientTransform="matrix(.875 0 0 .87507 -20.313 73.283)" x1="12.816" y1="400.389" x2="12.816" y2="406.511"/><linearGradient xlink:href="#e" id="s" gradientUnits="userSpaceOnUse" gradientTransform="matrix(.97222 0 0 .9722 -21.625 34.187)" x1="12.198" y1="401.096" x2="15.699" y2="404.598"/><linearGradient xlink:href="#f" id="t" gradientUnits="userSpaceOnUse" gradientTransform="matrix(.875 0 0 .87507 -20.313 73.283)" x1="12.816" y1="400.389" x2="12.816" y2="406.511"/><linearGradient xlink:href="#c" id="q" gradientUnits="userSpaceOnUse" gradientTransform="matrix(1.96316 0 0 1.00005 32.088 -395.874)" x1="-16" y1="423.455" x2="-5.521" y2="423.353"/><linearGradient xlink:href="#d" id="r" gradientUnits="userSpaceOnUse" gradientTransform="matrix(1.96316 0 0 1 11.76 -395.863)" x1="-5.913" y1="423.373" x2="4.452" y2="423.363"/><linearGradient id="u" gradientUnits="userSpaceOnUse" x1="9.151" x2="9.151" y1="8.541" y2="1.818"><stop offset="0" stop-color="#fcaf3e"/><stop offset="1" stop-color="#fcaf3e" stop-opacity="0"/></linearGradient><linearGradient id="v" gradientUnits="userSpaceOnUse" x1="12.336" x2="12.336" y1="6.005" y2="1.279"><stop offset="0" stop-color="#ce5c00"/><stop offset="1" stop-color="#ce5c00" stop-opacity="0"/></linearGradient><linearGradient id="w" gradientUnits="userSpaceOnUse" x1="10.85" x2="10.85" xlink:href="#g" y1="6.949" y2="3.167"/><linearGradient id="g"><stop offset="0" stop-color="#fff"/><stop offset="1" stop-color="#fff" stop-opacity="0"/></linearGradient></defs><linearGradient id="m" gradientTransform="matrix(1.29412 0 0 1.00005 21.303 -411.633)" gradientUnits="userSpaceOnUse" x1="-16" x2="-11.371" xlink:href="#c" y1="423.455" y2="423.362"/><linearGradient id="c"><stop offset="0" stop-color="#555753" stop-opacity="0"/><stop offset=".2" stop-color="#555753"/><stop offset=".8" stop-color="#555753"/><stop offset="1" stop-color="#555753" stop-opacity="0"/></linearGradient><linearGradient id="j" gradientTransform="matrix(1.29412 0 0 1 21.303 -410.113)" gradientUnits="userSpaceOnUse" x1="-16" x2="-11.467" xlink:href="#d" y1="423.586" y2="423.586"/><linearGradient id="d"><stop offset="0" stop-color="#babdb6" stop-opacity="0"/><stop offset=".2" stop-color="#babdb6"/><stop offset=".844" stop-color="#babdb6"/><stop offset="1" stop-color="#babdb6" stop-opacity="0"/></linearGradient><linearGradient id="e"><stop offset="0" stop-color="#d3d7cf"/><stop offset="1" stop-color="#fafbfa"/></linearGradient><linearGradient id="f"><stop offset="0" stop-color="#fff"/><stop offset="1" stop-color="#fff" stop-opacity="0"/></linearGradient><linearGradient id="k" gradientTransform="matrix(.97222 0 0 .9722 -21.625 34.187)" gradientUnits="userSpaceOnUse" x1="12.198" x2="15.699" xlink:href="#e" y1="401.096" y2="404.598"/><linearGradient id="l" gradientTransform="matrix(.875 0 0 .87507 -20.313 73.283)" gradientUnits="userSpaceOnUse" x1="12.816" x2="12.816" xlink:href="#f" y1="400.389" y2="406.511"/><g opacity=".36"><path d="M-19.153 424.137h9v3h-9z" transform="rotate(180 2.73 287.257) scale(1.33333)" fill="url(#h)"/><path d="M-19.153 424.887h9v1.5h-9z" transform="rotate(180 2.73 287.257) scale(1.33333)" fill="url(#i)"/></g><path d="M13.75 12.5l8.9.01-.053 1.377L13.75 14z" fill="url(#j)" transform="translate(.667 -10.667) scale(1.33333)"/><g stroke-width=".875" stroke-linecap="round" opacity=".7"><path d="M-11.386 422.57h6.113l.015 6.11h-6.112z" transform="translate(32.51 -479.435) scale(1.14285)" fill="url(#k)" stroke="#888a85" stroke-linejoin="round"/><path d="M-10.517 423.444l4.393.01-.02 4.37-4.346-.034z" transform="translate(32.51 -479.435) scale(1.14285)" fill="none" stroke="url(#l)"/></g><g opacity=".35"><path d="M.25 10.25H7v3H.25z" fill="url(#m)" transform="translate(.667 -8.667) scale(1.33333)"/><path d="M.35 10.99l8.9.01-.054 1.378-8.847.113z" fill="url(#n)" transform="translate(.667 -8.667) scale(1.33333)"/></g><g stroke-width=".875" stroke-linecap="round" opacity=".7"><path transform="translate(18.51 -479.435) scale(1.14285)" d="M-11.386 422.57h6.113l.015 6.11h-6.112z" fill="url(#o)" stroke="#888a85" stroke-linejoin="round"/><path transform="translate(18.51 -479.435) scale(1.14285)" d="M-10.517 423.444l4.393.01-.02 4.37-4.346-.034z" fill="none" stroke="url(#p)"/></g><path d="M.15 26.01L22 26v3l-21.85.01z" fill="url(#q)" transform="translate(.667 -11.667) scale(1.33333)"/><path d="M.3 26.75H22v1.5H.3z" fill="url(#r)" transform="translate(.667 -11.667) scale(1.33333)"/><g stroke-width=".875" stroke-linecap="round"><path transform="translate(25.51 -461.435) scale(1.14285)" d="M-11.386 422.57h6.113l.015 6.11h-6.112z" fill="url(#s)" stroke="#888a85" stroke-linejoin="round"/><path transform="translate(25.51 -461.435) scale(1.14285)" d="M-10.517 423.444l4.393.01-.02 4.37-4.346-.034z" fill="none" stroke="url(#t)"/></g><g stroke-width="1.79" stroke-miterlimit="10"><path d="M3.898.394v5.663H.5L8.143 15.5l7.643-9.443H12.4V.394z" fill="url(#u)" fill-rule="evenodd" stroke="url(#v)" stroke-linecap="round" stroke-linejoin="round" transform="matrix(.58878 0 0 .5299 11.206 11.79)"/><path d="M5.607 2.28v5.677H4.274l3.86 4.725 3.79-4.725H10.7V2.28z" opacity=".681" fill="none" stroke="url(#w)" transform="matrix(.58878 0 0 .5299 11.206 11.79)"/></g></svg>
